x-pack/solutions/observability/plugins/apm/public/components/shared/span_icon/icons/cosmos_db.svg

<svg width="18" height="18" viewBox="0 0 18 18" fill="none" xmlns="http://www.w3.org/2000/svg">
<g clip-path="url(#clip0_1421_84669)">
<path d="M2.95402 5.26595C2.93087 5.26608 2.90792 5.26162 2.88651 5.25282C2.8651 5.24402 2.84564 5.23106 2.82927 5.21469C2.8129 5.19832 2.79994 5.17887 2.79114 5.15746C2.78235 5.13604 2.77789 5.1131 2.77802 5.08995V5.08995C2.77722 4.55737 2.56531 4.04684 2.18872 3.67025C1.81213 3.29366 1.30159 3.08174 0.769018 3.08095C0.722512 3.08095 0.677897 3.06254 0.644919 3.02975C0.611941 2.99696 0.593282 2.95245 0.593018 2.90595V2.90595C0.593018 2.85927 0.61156 2.8145 0.644567 2.7815C0.677573 2.74849 0.722339 2.72995 0.769018 2.72995C1.30177 2.72915 1.81245 2.5171 2.18907 2.1403C2.56569 1.76349 2.77749 1.2527 2.77802 0.719948C2.77789 0.696798 2.78235 0.673852 2.79114 0.652439C2.79994 0.631026 2.8129 0.611571 2.82927 0.595202C2.84564 0.578832 2.8651 0.565873 2.88651 0.557075C2.90792 0.548277 2.93087 0.543816 2.95402 0.543948C2.97717 0.543816 3.00011 0.548277 3.02153 0.557075C3.04294 0.565873 3.06239 0.578832 3.07876 0.595202C3.09513 0.611571 3.10809 0.631026 3.11689 0.652439C3.12569 0.673852 3.13015 0.696798 3.13002 0.719948V0.719948C3.13081 1.25252 3.34273 1.76306 3.71932 2.13965C4.09591 2.51624 4.60644 2.72815 5.13902 2.72895C5.16217 2.72882 5.18511 2.73328 5.20653 2.74208C5.22794 2.75087 5.24739 2.76383 5.26376 2.7802C5.28013 2.79657 5.29309 2.81603 5.30189 2.83744C5.31069 2.85885 5.31515 2.8818 5.31502 2.90495C5.31515 2.9281 5.31069 2.95104 5.30189 2.97246C5.29309 2.99387 5.28013 3.01333 5.26376 3.02969C5.24739 3.04606 5.22794 3.05902 5.20653 3.06782C5.18511 3.07662 5.16217 3.08108 5.13902 3.08095V3.08095C4.60636 3.08148 4.09567 3.29331 3.71902 3.66996C3.34238 4.0466 3.13055 4.55729 3.13002 5.08995C3.12976 5.13655 3.11113 5.18116 3.07818 5.21411C3.04523 5.24706 3.00061 5.26569 2.95402 5.26595Z" fill="#50E6FF"/>
<path d="M15.6109 17.456C15.5735 17.456 15.5377 17.4411 15.5112 17.4147C15.4848 17.3882 15.4699 17.3524 15.4699 17.315C15.4694 16.8889 15.2999 16.4805 14.9987 16.1792C14.6974 15.878 14.289 15.7085 13.8629 15.708C13.8257 15.708 13.79 15.6932 13.7636 15.667C13.7372 15.6408 13.7222 15.6052 13.7219 15.568V15.568C13.7219 15.5306 13.7368 15.4947 13.7632 15.4683C13.7897 15.4418 13.8255 15.427 13.8629 15.427V15.427C14.289 15.4267 14.6976 15.2573 14.999 14.956C15.3003 14.6547 15.4697 14.2461 15.4699 13.82C15.4699 13.7826 15.4848 13.7467 15.5112 13.7203C15.5377 13.6938 15.5735 13.679 15.6109 13.679V13.679C15.6483 13.679 15.6842 13.6938 15.7106 13.7203C15.7371 13.7467 15.7519 13.7826 15.7519 13.82V13.82C15.7522 14.2461 15.9216 14.6547 16.2229 14.956C16.5242 15.2573 16.9328 15.4267 17.3589 15.427C17.3963 15.427 17.4322 15.4418 17.4586 15.4683C17.4851 15.4947 17.4999 15.5306 17.4999 15.568C17.4999 15.6054 17.4851 15.6412 17.4586 15.6677C17.4322 15.6941 17.3963 15.709 17.3589 15.709V15.709C16.9329 15.7095 16.5244 15.879 16.2232 16.1802C15.9219 16.4815 15.7525 16.8899 15.7519 17.316C15.7517 17.3532 15.7367 17.3888 15.7103 17.415C15.6839 17.4412 15.6481 17.456 15.6109 17.456V17.456Z" fill="#50E6FF"/>
<path d="M14.9688 7.52996C15.2509 8.71052 15.1765 9.94821 14.7551 11.0865C14.3337 12.2248 13.5843 13.2126 12.6015 13.9249C11.6187 14.6373 10.4468 15.0422 9.23391 15.0885C8.02101 15.1348 6.82161 14.8204 5.7874 14.1851C4.75318 13.5497 3.9306 12.6219 3.42366 11.5191C2.91673 10.4162 2.74821 9.18782 2.93943 7.98919C3.13064 6.79056 3.673 5.67555 4.49792 4.78516C5.32283 3.89477 6.39325 3.26899 7.57382 2.98696C9.15689 2.60877 10.8254 2.87494 12.2122 3.72691C13.599 4.57889 14.5906 5.94688 14.9688 7.52996V7.52996Z" fill="url(#paint0_radial_1421_84669)"/>
<path d="M5.70891 13.115C5.92734 13.1207 6.14471 13.0827 6.34821 13.0031C6.55172 12.9236 6.73725 12.8041 6.89388 12.6517C7.05052 12.4994 7.17508 12.3172 7.26025 12.116C7.34542 11.9148 7.38947 11.6986 7.3898 11.4801C7.39014 11.2616 7.34675 11.0452 7.26219 10.8437C7.17764 10.6422 7.05363 10.4597 6.89746 10.3069C6.7413 10.154 6.55613 10.034 6.35287 9.95382C6.14961 9.87364 5.93236 9.83494 5.71391 9.84C5.71875 9.79349 5.72109 9.74675 5.72091 9.7C5.71695 9.26299 5.53988 8.84538 5.22853 8.53871C4.91717 8.23204 4.49693 8.06133 4.05991 8.064H2.83191C2.71178 8.97134 2.79236 9.894 3.06797 10.7668C3.34358 11.6396 3.80748 12.4412 4.42691 13.115H5.70891Z" fill="#F2F2F2"/>
<path d="M15.0449 7.81499C15.0449 7.79999 15.0449 7.78499 15.0379 7.77099C14.8401 6.70092 14.3539 5.70513 13.6319 4.89099C13.5382 4.85304 13.4415 4.82294 13.3429 4.80099C13.0801 4.72602 12.8037 4.71166 12.5346 4.75897C12.2655 4.80629 12.0106 4.91407 11.7892 5.07417C11.5677 5.23428 11.3855 5.44255 11.2562 5.68329C11.127 5.92403 11.054 6.19097 11.0429 6.46399C10.9764 6.45632 10.9097 6.45198 10.8429 6.45099C10.4333 6.45096 10.0368 6.59567 9.72358 6.85957C9.41034 7.12347 9.20042 7.48957 9.13091 7.89322C9.0614 8.29687 9.13677 8.7121 9.34371 9.06558C9.55065 9.41905 9.87584 9.68802 10.2619 9.82499C10.4342 9.89252 10.6178 9.92647 10.8029 9.92499H12.8329C13.648 9.30799 14.3901 8.60009 15.0449 7.81499Z" fill="#F2F2F2"/>
<path d="M17.191 3.83197C16.562 2.78497 15.091 2.37697 13.036 2.68297C12.3319 2.78275 11.636 2.93382 10.954 3.13497C11.4951 3.32177 12.0089 3.57969 12.482 3.90197C12.723 3.84897 12.965 3.78597 13.197 3.75097C13.5619 3.69415 13.9306 3.6644 14.3 3.66197C14.6611 3.60992 15.0294 3.64898 15.3716 3.7756C15.7137 3.90222 16.0188 4.11239 16.259 4.38697V4.38697C16.642 5.02497 16.319 6.11597 15.373 7.38697C14.0583 9.02339 12.4472 10.3977 10.624 11.438C8.84161 12.5504 6.86594 13.3177 4.79998 13.7C3.23598 13.934 2.11798 13.7 1.73498 13.064C1.35198 12.428 1.67498 11.334 2.62098 10.069C2.73798 9.91197 2.76698 9.83497 2.89998 9.67697C2.83746 9.13483 2.84621 8.58684 2.92598 8.04697C2.50082 8.47312 2.10963 8.93185 1.75598 9.41897C0.516975 11.076 0.180975 12.566 0.808975 13.613C1.14072 14.0568 1.58318 14.4058 2.0921 14.6249C2.60101 14.8441 3.15856 14.9259 3.70898 14.862C4.12788 14.8598 4.54604 14.8263 4.95998 14.762C7.16526 14.3595 9.27502 13.5453 11.179 12.362C13.1235 11.2492 14.8405 9.77947 16.24 8.02997C17.483 6.36897 17.819 4.87997 17.191 3.83197Z" fill="#50E6FF"/>
</g>
<defs>
<radialGradient id="paint0_radial_1421_84669" cx="0" cy="0" r="1" gradientUnits="userSpaceOnUse" gradientTransform="translate(8.9526 8.95391) scale(6.16834 6.11476)">
<stop offset="0.183" stop-color="#5EA0EF"/>
<stop offset="1" stop-color="#0078D4"/>
</radialGradient>
<clipPath id="clip0_1421_84669">
<rect width="18" height="18" fill="white"/>
</clipPath>
</defs>
</svg>

<svg xmlns="http://www.w3.org/2000/svg" width="18" height="18" fill="none"><g clip-path="url(#a)"><path fill="#50E6FF" d="M2.954 5.266a.175.175 0 0 1-.176-.176A2.01 2.01 0 0 0 .769 3.081a.176.176 0 0 1-.176-.175.176.176 0 0 1 .176-.176A2.01 2.01 0 0 0 2.778.72a.175.175 0 0 1 .244-.163.18.18 0 0 1 .108.163 2.01 2.01 0 0 0 2.009 2.009.175.175 0 0 1 .163.243.18.18 0 0 1-.163.109A2.01 2.01 0 0 0 3.13 5.09a.177.177 0 0 1-.176.176M15.61 17.456a.14.14 0 0 1-.14-.141 1.61 1.61 0 0 0-1.607-1.607.14.14 0 0 1-.141-.14.14.14 0 0 1 .14-.141 1.61 1.61 0 0 0 1.608-1.607.14.14 0 0 1 .14-.141.14.14 0 0 1 .142.141 1.61 1.61 0 0 0 1.607 1.607.14.14 0 1 1 0 .282 1.61 1.61 0 0 0-1.607 1.607.14.14 0 0 1-.141.14"/><path fill="url(#b)" d="M14.969 7.53a6.136 6.136 0 1 1-11.937 2.852A6.136 6.136 0 0 1 14.97 7.53"/><path fill="#F2F2F2" d="M5.709 13.115a1.638 1.638 0 1 0 .005-3.275q.007-.07.007-.14A1.65 1.65 0 0 0 4.06 8.064H2.832a6.25 6.25 0 0 0 1.595 5.051zM15.045 7.815q.002-.023-.007-.044a6 6 0 0 0-1.406-2.88 2 2 0 0 0-.29-.09 1.806 1.806 0 0 0-2.3 1.663 1.737 1.737 0 0 0-.781 3.361c.173.068.357.101.542.1h2.03a13.5 13.5 0 0 0 2.212-2.11"/><path fill="#50E6FF" d="M17.191 3.832c-.629-1.047-2.1-1.455-4.155-1.149q-1.058.15-2.082.452a6.5 6.5 0 0 1 1.528.767c.241-.053.483-.116.715-.151a7.5 7.5 0 0 1 1.103-.089 2.19 2.19 0 0 1 1.959.725c.383.638.06 1.729-.886 3a16.7 16.7 0 0 1-4.749 4.051A16.8 16.8 0 0 1 4.8 13.7c-1.564.234-2.682 0-3.065-.636s-.06-1.73.886-2.995c.117-.157.146-.234.279-.392a6.3 6.3 0 0 1 .026-1.63 11.6 11.6 0 0 0-1.17 1.372C.517 11.076.181 12.566.809 13.613a3.16 3.16 0 0 0 2.9 1.249 8.4 8.4 0 0 0 1.251-.1 17.9 17.9 0 0 0 6.219-2.4A17.8 17.8 0 0 0 16.24 8.03c1.243-1.661 1.579-3.15.951-4.198"/></g><defs><radialGradient id="b" cx="0" cy="0" r="1" gradientTransform="matrix(6.16834 0 0 6.11476 8.953 8.954)" gradientUnits="userSpaceOnUse"><stop offset=".183" stop-color="#5EA0EF"/><stop offset="1" stop-color="#0078D4"/></radialGradient><clipPath id="a"><path fill="#fff" d="M0 0h18v18H0z"/></clipPath></defs></svg>
